X: 15509
T: Glenside, The
R: polka
M: 2/4
K: Edorian
|:EA|B>c BA|FA DA|B>c BA|Be ed|
B2 c/B/A|F/G/A D>E|FD AF|E2-:|
|:E2|Be- ed/e/|fe dA|Be ed/e/|f/g/f/e/ d2|
Be ed/e/|fe dB|AF d/A/F|E2:|

